_includes/icons/color-wall-socket-with-plug.svg

<svg fill="#666" height="50" viewBox="0 0 48 48" width="50" xmlns="http://www.w3.org/2000/svg"><path d="m42 40c0 1.105469-.894531 2-2 2h-32c-1.105469 0-2-.894531-2-2v-32c0-1.105469.894531-2 2-2h32c1.105469 0 2 .894531 2 2z" fill="#bbdefb"/><path d="m35 24c0 6.074219-4.925781 11-11 11s-11-4.925781-11-11 4.925781-11 11-11 11 4.925781 11 11z" fill="#0d47a1"/><path d="m32.5 24c0 4.695313-3.804687 8.5-8.5 8.5-4.695312 0-8.5-3.804687-8.5-8.5 0-4.695312 3.804688-8.5 8.5-8.5 4.695313 0 8.5 3.804688 8.5 8.5z" fill="#64b5f6"/><path d="m22 37h4v5h-4z" fill="#42a5f5"/><path d="m26 38c2 0 2-2 2-2v-15c0-1.105469-.894531-2-2-2h-4c-1.105469 0-2 .894531-2 2v15s0 2 2 2z" fill="#1e88e5"/></svg>

<svg xmlns="http://www.w3.org/2000/svg" viewBox="0 0 48 48" width="50" height="50" fill="#666"><path d="M 42 40 C 42 41.105469 41.105469 42 40 42 L 8 42 C 6.894531 42 6 41.105469 6 40 L 6 8 C 6 6.894531 6.894531 6 8 6 L 40 6 C 41.105469 6 42 6.894531 42 8 Z" fill="#bbdefb"/><path d="M 35 24 C 35 30.074219 30.074219 35 24 35 C 17.925781 35 13 30.074219 13 24 C 13 17.925781 17.925781 13 24 13 C 30.074219 13 35 17.925781 35 24 Z" fill="#0d47a1"/><path d="M 32.5 24 C 32.5 28.695313 28.695313 32.5 24 32.5 C 19.304688 32.5 15.5 28.695313 15.5 24 C 15.5 19.304688 19.304688 15.5 24 15.5 C 28.695313 15.5 32.5 19.304688 32.5 24 Z" fill="#64b5f6"/><path d="M 22 37 L 26 37 L 26 42 L 22 42 Z" fill="#42a5f5"/><path d="M 26 38 C 28 38 28 36 28 36 L 28 21 C 28 19.894531 27.105469 19 26 19 L 22 19 C 20.894531 19 20 19.894531 20 21 L 20 36 C 20 36 20 38 22 38 C 24 38 24 38 26 38 Z" fill="#1e88e5"/></svg>
